web-app/src/assets/SVG/book-background.svg

<svg width="122" height="93" viewBox="0 0 122 93" fill="none" xmlns="http://www.w3.org/2000/svg">
<path d="M91.25 0.75C80.525 0.75 68.975 2.95 61 9C53.025 2.95 41.475 0.75 30.75 0.75C22.775 0.75 14.305 1.96 7.21 5.095C3.195 6.91 0.5 10.815 0.5 15.27V77.31C0.5 84.46 7.21 89.74 14.14 87.98C19.53 86.605 25.25 86 30.75 86C39.33 86 48.46 87.43 55.83 91.06C59.13 92.71 62.87 92.71 66.115 91.06C73.485 87.375 82.615 86 91.195 86C96.695 86 102.415 86.605 107.805 87.98C114.735 89.795 121.445 84.515 121.445 77.31V15.27C121.445 10.815 118.75 6.91 114.735 5.095C107.695 1.96 99.225 0.75 91.25 0.75ZM110.5 70.765C110.5 74.23 107.31 76.76 103.9 76.155C99.775 75.385 95.485 75.055 91.25 75.055C81.9 75.055 68.425 78.63 61 83.305V20C68.425 15.325 81.9 11.75 91.25 11.75C96.31 11.75 101.315 12.245 106.1 13.29C108.63 13.84 110.5 16.095 110.5 18.68V70.765Z" fill="#CCCCCC"/>
<path d="M71.8899 36.5551C70.1299 36.5551 68.535 35.4551 67.985 33.6951C67.27 31.5501 68.48 29.1851 70.625 28.5251C79.095 25.7751 90.04 24.8951 100.105 26.0501C102.36 26.3251 104.01 28.3601 103.735 30.6151C103.46 32.8701 101.425 34.5201 99.17 34.2451C90.26 33.2001 80.525 34.0251 73.155 36.3901C72.715 36.4451 72.2749 36.5551 71.8899 36.5551Z" fill="#CCCCCC"/>
<path d="M71.8899 51.1851C70.1299 51.1851 68.535 50.0851 67.985 48.3251C67.27 46.1801 68.48 43.8151 70.625 43.1551C79.04 40.4051 90.04 39.5251 100.105 40.6801C102.36 40.9551 104.01 42.9901 103.735 45.2451C103.46 47.5001 101.425 49.1501 99.17 48.8751C90.26 47.8301 80.525 48.6551 73.155 51.0201C72.715 51.1301 72.2749 51.1851 71.8899 51.1851Z" fill="#CCCCCC"/>
<path d="M71.8899 65.8149C70.1299 65.8149 68.535 64.715 67.985 62.955C67.27 60.81 68.48 58.4449 70.625 57.7849C79.04 55.0349 90.04 54.1549 100.105 55.3099C102.36 55.5849 104.01 57.6199 103.735 59.8749C103.46 62.1299 101.425 63.7249 99.17 63.5049C90.26 62.4599 80.525 63.2849 73.155 65.6499C72.715 65.7599 72.2749 65.8149 71.8899 65.8149Z" fill="#CCCCCC"/>
</svg>

<svg xmlns="http://www.w3.org/2000/svg" width="122" height="93" fill="none"><path fill="#CCC" d="M91.25.75C80.525.75 68.975 2.95 61 9 53.025 2.95 41.475.75 30.75.75c-7.975 0-16.445 1.21-23.54 4.345C3.195 6.91.5 10.815.5 15.27v62.04c0 7.15 6.71 12.43 13.64 10.67C19.53 86.605 25.25 86 30.75 86c8.58 0 17.71 1.43 25.08 5.06 3.3 1.65 7.04 1.65 10.285 0 7.37-3.685 16.5-5.06 25.08-5.06 5.5 0 11.22.605 16.61 1.98 6.93 1.815 13.64-3.465 13.64-10.67V15.27c0-4.455-2.695-8.36-6.71-10.175C107.695 1.96 99.225.75 91.25.75Zm19.25 70.015c0 3.465-3.19 5.995-6.6 5.39-4.125-.77-8.415-1.1-12.65-1.1-9.35 0-22.825 3.575-30.25 8.25V20c7.425-4.675 20.9-8.25 30.25-8.25 5.06 0 10.065.495 14.85 1.54 2.53.55 4.4 2.805 4.4 5.39v52.085Z"/><path fill="#CCC" d="M71.89 36.555c-1.76 0-3.355-1.1-3.905-2.86-.715-2.145.495-4.51 2.64-5.17 8.47-2.75 19.415-3.63 29.48-2.475 2.255.275 3.905 2.31 3.63 4.565-.275 2.255-2.31 3.905-4.565 3.63-8.91-1.045-18.645-.22-26.015 2.145-.44.055-.88.165-1.265.165ZM71.89 51.185c-1.76 0-3.355-1.1-3.905-2.86-.715-2.145.495-4.51 2.64-5.17 8.415-2.75 19.415-3.63 29.48-2.475 2.255.275 3.905 2.31 3.63 4.565-.275 2.255-2.31 3.905-4.565 3.63-8.91-1.045-18.645-.22-26.015 2.145-.44.11-.88.165-1.265.165ZM71.89 65.815c-1.76 0-3.355-1.1-3.905-2.86-.715-2.145.495-4.51 2.64-5.17 8.415-2.75 19.415-3.63 29.48-2.475 2.255.275 3.905 2.31 3.63 4.565-.275 2.255-2.31 3.85-4.565 3.63-8.91-1.045-18.645-.22-26.015 2.145-.44.11-.88.165-1.265.165Z"/></svg>
